svg/charges/weapon/bow-with-arrow-nocked.svg

<?xml version="1.0" encoding="UTF-8" standalone="no"?>
<svg
   xmlns:dc="http://purl.org/dc/elements/1.1/"
   xmlns:cc="http://creativecommons.org/ns#"
   xmlns:rdf="http://www.w3.org/1999/02/22-rdf-syntax-ns#"
   xmlns:svg="http://www.w3.org/2000/svg"
   xmlns="http://www.w3.org/2000/svg"
   version="1.1"
   width="292.5"
   height="297"
   id="svg70">
  <defs
     id="defs5">
    <clipPath
       id="artboard_clip_path">
      <path
         d="M 36 63 L 328.5 63 L 328.5 360 L 36 360 Z"
         id="path2" />
    </clipPath>
  </defs>
  <metadata
     id="metadata7"> Produced by OmniGraffle 7.7.1 
    <dc:date>2018-03-18 08:21:30 +0000</dc:date>
<dc:title>Traceable heraldic art http://heraldicart.org/credits.html</dc:title>
<rdf:RDF>
  <cc:Work
     rdf:about="">
    <dc:format>image/svg+xml</dc:format>
    <dc:type
       rdf:resource="http://purl.org/dc/dcmitype/StillImage" />
    <dc:title></dc:title>
  </cc:Work>
</rdf:RDF>
</metadata>
  <g
     id="Bow_With_An_Arrow_Nocked,_Drawn"
     fill-opacity="1"
     stroke-dasharray="none"
     stroke="none"
     stroke-opacity="1"
     fill="#ffff00"
     transform="translate(-35.881925,-62.999994)">
    <title
       id="title9">Bow With An Arrow Nocked, Drawn</title>
    <g
       id="Bow_With_An_Arrow_Nocked,_Drawn: Layer 2">
      <title
         id="title11">Layer 2</title>
      <g
         id="Group_3">
        <g
           id="Graphic_11">
          <title
             id="title13">path21</title>
          <path
             d="m 322.4882,210.3863 -92.1351,142.51155 3.46923,1.46842 90.93639,-141.65579 1.49128,-2.32418 -0.0555,-0.0952 -91.77721,-142.95669 -2.88598,1.47635 z"
             fill="#ff0000"
             id="path15" />
          <path
             d="m 322.4882,210.3863 -92.1351,142.51155 3.46923,1.46842 90.93639,-141.65579 1.49128,-2.32418 -0.0555,-0.0952 -91.77721,-142.95669 -2.88598,1.47635 z"
             stroke="#cccccc"
             stroke-linecap="round"
             stroke-linejoin="round"
             stroke-width="1.5"
             id="path17" />
        </g>
        <g
           id="Graphic_10">
          <title
             id="title20">path29</title>
          <path
             d="m 113.41472,191.72348 21.66323,0.11105 c -0.0169,-37.24801 27.34311,-72.19592 72.76339,-92.94327 14.63612,-6.02662 25.25736,-15.73974 29.59558,-27.06516 0.89218,-1.461495 0.411,-3.14783 -1.21859,-4.27074 -1.6296,-1.12291 -4.08571,-1.46058 -6.22026,-0.85517 -2.13455,0.605405 -3.52589,2.0343 -3.52365,3.61877 -0.93822,7.69548 -7.42562,14.37037 -17.29252,17.79224 -60.39406,17.38772 -98.62641,58.752 -95.76718,103.61228 z"
             fill="#ff0000"
             id="path22" />
          <path
             d="m 113.41472,191.72348 21.66323,0.11105 c -0.0169,-37.24801 27.34311,-72.19592 72.76339,-92.94327 14.63612,-6.02662 25.25736,-15.73974 29.59558,-27.06516 0.89218,-1.461495 0.411,-3.14783 -1.21859,-4.27074 -1.6296,-1.12291 -4.08571,-1.46058 -6.22026,-0.85517 -2.13455,0.605405 -3.52589,2.0343 -3.52365,3.61877 -0.93822,7.69548 -7.42562,14.37037 -17.29252,17.79224 -60.39406,17.38772 -98.62641,58.752 -95.76718,103.61228 z"
             stroke="#cccccc"
             stroke-linecap="round"
             stroke-linejoin="round"
             stroke-width="2"
             id="path24" />
        </g>
        <g
           id="Graphic_9">
          <title
             id="title27">path34</title>
          <path
             d="m 113.41472,231.27652 21.66323,-0.11105 c -0.0169,37.24801 27.34311,72.19593 72.76339,92.94327 14.63612,6.02662 25.25736,15.73974 29.59558,27.06516 0.89218,1.4615 0.411,3.14783 -1.21859,4.27074 -1.6296,1.12291 -4.08571,1.46056 -6.22026,0.85516 -2.13455,-0.6054 -3.52589,-2.0343 -3.52365,-3.61876 -0.93822,-7.69548 -7.42562,-14.37037 -17.29252,-17.79224 -60.39406,-17.38772 -98.62641,-58.752 -95.76718,-103.61228 z"
             fill="#ff0000"
             id="path29" />
          <path
             d="m 113.41472,231.27652 21.66323,-0.11105 c -0.0169,37.24801 27.34311,72.19593 72.76339,92.94327 14.63612,6.02662 25.25736,15.73974 29.59558,27.06516 0.89218,1.4615 0.411,3.14783 -1.21859,4.27074 -1.6296,1.12291 -4.08571,1.46056 -6.22026,0.85516 -2.13455,-0.6054 -3.52589,-2.0343 -3.52365,-3.61876 -0.93822,-7.69548 -7.42562,-14.37037 -17.29252,-17.79224 -60.39406,-17.38772 -98.62641,-58.752 -95.76718,-103.61228 z"
             stroke="#cccccc"
             stroke-linecap="round"
             stroke-linejoin="round"
             stroke-width="2"
             id="path31" />
        </g>
        <g
           id="Graphic_8">
          <title
             id="title34">path39</title>
          <path
             d="m 131.29044,237.8786 c 3.94281,-2e-5 7.13908,-3.1963 7.13911,-7.1391 v -33.8473 c -3e-5,-3.94282 -3.1963,-7.13909 -7.13911,-7.13912 H 117.2264 c -3.94281,3e-5 -7.13908,3.1963 -7.13911,7.13912 v 33.8473 c 3e-5,3.9428 3.1963,7.13908 7.13911,7.1391 z"
             fill="#ff0000"
             id="path36" />
          <path
             d="m 131.29044,237.8786 c 3.94281,-2e-5 7.13908,-3.1963 7.13911,-7.1391 v -33.8473 c -3e-5,-3.94282 -3.1963,-7.13909 -7.13911,-7.13912 H 117.2264 c -3.94281,3e-5 -7.13908,3.1963 -7.13911,7.13912 v 33.8473 c 3e-5,3.9428 3.1963,7.13908 7.13911,7.1391 z"
             stroke="#cccccc"
             stroke-linecap="round"
             stroke-linejoin="round"
             stroke-width="2"
             id="path38" />
        </g>
        <g
           id="Graphic_7">
          <title
             id="title41">path50</title>
          <path
             d="m 223.84748,205.32348 h 68.89242 l 10.40722,-20.80654 h -68.8924 z"
             fill="#ff0000"
             id="path43" />
          <path
             d="m 223.84748,205.32348 h 68.89242 l 10.40722,-20.80654 h -68.8924 z"
             stroke="#cccccc"
             stroke-linecap="round"
             stroke-linejoin="round"
             stroke-width="2"
             id="path45" />
        </g>
        <g
           id="Graphic_6">
          <title
             id="title48">path55</title>
          <path
             d="m 223.84748,214.7931 h 68.89242 l 10.40722,20.80655 h -68.8924 z"
             fill="#ff0000"
             id="path50" />
          <path
             d="m 223.84748,214.7931 h 68.89242 l 10.40722,20.80655 h -68.8924 z"
             stroke="#cccccc"
             stroke-linecap="round"
             stroke-linejoin="round"
             stroke-width="2"
             id="path52" />
        </g>
        <g
           id="Graphic_5">
          <path
             d="M 317.1852,202.1024 H 79.27624 v 16.063 h 246.73742 v -5.04498 l -8.13066,-2.98256 3.61316,-1.32541 z m 7.36085,5.59126 1.46761,-0.53836 v -5.0529 h -5.05716 z"
             fill="#ff0000"
             id="path55" />
          <path
             d="M 317.1852,202.1024 H 79.27624 v 16.063 h 246.73742 v -5.04498 l -8.13066,-2.98256 3.61316,-1.32541 z m 7.36085,5.59126 1.46761,-0.53836 v -5.0529 h -5.05716 z"
             stroke="#cccccc"
             stroke-linecap="round"
             stroke-linejoin="round"
             stroke-width="2"
             id="path57" />
        </g>
        <g
           id="Graphic_4">
          <title
             id="title60">path65</title>
          <path
             d="M 94.89487,189.3525 38.25,210.13524 94.89487,230.91798 Z"
             fill="#ff0000"
             id="path62" />
          <path
             d="M 94.89487,189.3525 38.25,210.13524 94.89487,230.91798 Z"
             stroke="#cccccc"
             stroke-linecap="round"
             stroke-linejoin="round"
             stroke-width="2"
             id="path64" />
        </g>
      </g>
    </g>
  </g>
  <circle
     style="fill:#3250b0;stroke-width:3;stroke-linecap:round;stroke-linejoin:round;stroke-miterlimit:3"
     id="hold-point"
     cx="88.575859"
     cy="147.2589"
     r="13.599355" />
</svg>

<?xml version="1.0" encoding="UTF-8" standalone="no"?>
<!DOCTYPE svg PUBLIC "-//W3C//DTD SVG 1.1//EN" "http://www.w3.org/Graphics/SVG/1.1/DTD/svg11.dtd">
<svg xmlns:dc="http://purl.org/dc/elements/1.1/" xmlns:xl="http://www.w3.org/1999/xlink" version="1.1" xmlns="http://www.w3.org/2000/svg" viewBox="36 63 292.5 297" width="292.5" height="297">
  <defs>
    <clipPath id="artboard_clip_path">
      <path d="M 36 63 L 328.5 63 L 328.5 360 L 36 360 Z"/>
    </clipPath>
  </defs>
  <metadata> Produced by OmniGraffle 7.7.1 
    <dc:date>2018-03-18 08:21:30 +0000</dc:date><dc:title>Traceable heraldic art http://heraldicart.org/credits.html</dc:title>
  </metadata>
  <g id="Bow_With_An_Arrow_Nocked,_Drawn" fill-opacity="1" stroke-dasharray="none" stroke="none" stroke-opacity="1" fill="#ffff00">
    <title>Bow With An Arrow Nocked, Drawn</title>
    <g id="Bow_With_An_Arrow_Nocked,_Drawn: Layer 2" >
      <title>Layer 2</title>
      <g id="Group_3">
        <g id="Graphic_11">
          <title>path21</title>
          <path d="M 322.4882 210.3863 L 230.3531 352.89785 L 233.82233 354.36627 L 324.75872 212.71048 L 326.25 210.3863 L 326.19447 210.2911 L 234.41726 67.33441 L 231.53128 68.81076 Z" fill="#ff0000"/>
          <path d="M 322.4882 210.3863 L 230.3531 352.89785 L 233.82233 354.36627 L 324.75872 212.71048 L 326.25 210.3863 L 326.19447 210.2911 L 234.41726 67.33441 L 231.53128 68.81076 Z" stroke="#cccccc" stroke-linecap="round" stroke-linejoin="round" stroke-width="1.5"/>
        </g>
        <g id="Graphic_10">
          <title>path29</title>
          <path d="M 113.41472 191.72348 L 135.07795 191.83453 C 135.06105 154.58652 162.42106 119.63861 207.84134 98.89126 C 222.47746 92.86464 233.0987 83.15152 237.43692 71.8261 C 238.3291 70.364605 237.84792 68.67827 236.21833 67.55536 C 234.58873 66.43245 232.13262 66.09478 229.99807 66.70019 C 227.86352 67.305595 226.47218 68.73449 226.47442 70.31896 C 225.5362 78.01444 219.0488 84.68933 209.1819 88.1112 C 148.78784 105.49892 110.55549 146.8632 113.41472 191.72348 Z" fill="#ff0000"/>
          <path d="M 113.41472 191.72348 L 135.07795 191.83453 C 135.06105 154.58652 162.42106 119.63861 207.84134 98.89126 C 222.47746 92.86464 233.0987 83.15152 237.43692 71.8261 C 238.3291 70.364605 237.84792 68.67827 236.21833 67.55536 C 234.58873 66.43245 232.13262 66.09478 229.99807 66.70019 C 227.86352 67.305595 226.47218 68.73449 226.47442 70.31896 C 225.5362 78.01444 219.0488 84.68933 209.1819 88.1112 C 148.78784 105.49892 110.55549 146.8632 113.41472 191.72348 Z" stroke="#cccccc" stroke-linecap="round" stroke-linejoin="round" stroke-width="2"/>
        </g>
        <g id="Graphic_9">
          <title>path34</title>
          <path d="M 113.41472 231.27652 L 135.07795 231.16547 C 135.06105 268.41348 162.42106 303.3614 207.84134 324.10874 C 222.47746 330.13536 233.0987 339.84848 237.43692 351.1739 C 238.3291 352.6354 237.84792 354.32173 236.21833 355.44464 C 234.58873 356.56755 232.13262 356.9052 229.99807 356.2998 C 227.86352 355.6944 226.47218 354.2655 226.47442 352.68104 C 225.5362 344.98556 219.0488 338.31067 209.1819 334.8888 C 148.78784 317.50108 110.55549 276.1368 113.41472 231.27652 Z" fill="#ff0000"/>
          <path d="M 113.41472 231.27652 L 135.07795 231.16547 C 135.06105 268.41348 162.42106 303.3614 207.84134 324.10874 C 222.47746 330.13536 233.0987 339.84848 237.43692 351.1739 C 238.3291 352.6354 237.84792 354.32173 236.21833 355.44464 C 234.58873 356.56755 232.13262 356.9052 229.99807 356.2998 C 227.86352 355.6944 226.47218 354.2655 226.47442 352.68104 C 225.5362 344.98556 219.0488 338.31067 209.1819 334.8888 C 148.78784 317.50108 110.55549 276.1368 113.41472 231.27652 Z" stroke="#cccccc" stroke-linecap="round" stroke-linejoin="round" stroke-width="2"/>
        </g>
        <g id="Graphic_8">
          <title>path39</title>
          <path d="M 131.29044 237.8786 C 135.23325 237.87858 138.42952 234.6823 138.42955 230.7395 L 138.42955 196.8922 C 138.42952 192.94938 135.23325 189.75311 131.29044 189.75308 L 117.2264 189.75308 C 113.28359 189.75311 110.08732 192.94938 110.08729 196.8922 L 110.08729 230.7395 C 110.08732 234.6823 113.28359 237.87858 117.2264 237.8786 Z" fill="#ff0000"/>
          <path d="M 131.29044 237.8786 C 135.23325 237.87858 138.42952 234.6823 138.42955 230.7395 L 138.42955 196.8922 C 138.42952 192.94938 135.23325 189.75311 131.29044 189.75308 L 117.2264 189.75308 C 113.28359 189.75311 110.08732 192.94938 110.08729 196.8922 L 110.08729 230.7395 C 110.08732 234.6823 113.28359 237.87858 117.2264 237.8786 Z" stroke="#cccccc" stroke-linecap="round" stroke-linejoin="round" stroke-width="2"/>
        </g>
        <g id="Graphic_7">
          <title>path50</title>
          <path d="M 223.84748 205.32348 L 292.7399 205.32348 L 303.14712 184.51694 L 234.25472 184.51694 Z" fill="#ff0000"/>
          <path d="M 223.84748 205.32348 L 292.7399 205.32348 L 303.14712 184.51694 L 234.25472 184.51694 Z" stroke="#cccccc" stroke-linecap="round" stroke-linejoin="round" stroke-width="2"/>
        </g>
        <g id="Graphic_6">
          <title>path55</title>
          <path d="M 223.84748 214.7931 L 292.7399 214.7931 L 303.14712 235.59965 L 234.25472 235.59965 Z" fill="#ff0000"/>
          <path d="M 223.84748 214.7931 L 292.7399 214.7931 L 303.14712 235.59965 L 234.25472 235.59965 Z" stroke="#cccccc" stroke-linecap="round" stroke-linejoin="round" stroke-width="2"/>
        </g>
        <g id="Graphic_5">
          <path d="M 317.1852 202.1024 L 79.27624 202.1024 L 79.27624 218.1654 L 326.01366 218.1654 L 326.01366 213.12042 L 317.883 210.13786 L 321.49616 208.81245 Z M 324.54605 207.69366 L 326.01366 207.1553 L 326.01366 202.1024 L 320.9565 202.1024 Z" fill="#ff0000"/>
          <path d="M 317.1852 202.1024 L 79.27624 202.1024 L 79.27624 218.1654 L 326.01366 218.1654 L 326.01366 213.12042 L 317.883 210.13786 L 321.49616 208.81245 Z M 324.54605 207.69366 L 326.01366 207.1553 L 326.01366 202.1024 L 320.9565 202.1024 Z" stroke="#cccccc" stroke-linecap="round" stroke-linejoin="round" stroke-width="2"/>
        </g>
        <g id="Graphic_4">
          <title>path65</title>
          <path d="M 94.89487 189.3525 L 38.25 210.13524 L 94.89487 230.91798 Z" fill="#ff0000"/>
          <path d="M 94.89487 189.3525 L 38.25 210.13524 L 94.89487 230.91798 Z" stroke="#cccccc" stroke-linecap="round" stroke-linejoin="round" stroke-width="2"/>
        </g>
      </g>
    </g>
  </g>
</svg>
